docs/svg/youtube.svg

<svg xmlns="http://www.w3.org/2000/svg" width="20" height="17" viewBox="0 0 20 17" fill="none">
  <g clip-path="url(#clip0_5851_326)">
    <path d="M19.5858 3.18801C19.4729 2.72116 19.2514 2.29542 18.9436 1.9534C18.6358 1.61137 18.2524 1.36507 17.8318 1.23913C16.2838 0.7771 10.0783 0.7771 10.0783 0.7771C10.0783 0.7771 3.87282 0.7771 2.32477 1.23667C1.90403 1.3622 1.52046 1.60837 1.21258 1.95046C0.9047 2.29254 0.683349 2.7185 0.570758 3.18555C0.156616 4.90587 0.156616 8.49397 0.156616 8.49397C0.156616 8.49397 0.156616 12.0821 0.570758 13.7999C0.798868 14.7486 1.47213 15.4957 2.32477 15.7488C3.87282 16.2108 10.0783 16.2108 10.0783 16.2108C10.0783 16.2108 16.2838 16.2108 17.8318 15.7488C18.6867 15.4957 19.3577 14.7486 19.5858 13.7999C20 12.0821 20 8.49397 20 8.49397C20 8.49397 20 4.90587 19.5858 3.18801ZM8.10725 11.7872V5.20078L13.2453 8.46939L8.10725 11.7872Z" fill="white"/>
  </g>
  <defs>
    <clipPath id="clip0_5851_326">
      <rect width="19.8434" height="15.4337" fill="white" transform="translate(0.156616 0.7771)"/>
    </clipPath>
  </defs>
</svg>

<svg xmlns="http://www.w3.org/2000/svg" width="20" height="17" fill="none"><g clip-path="url(#a)"><path fill="#fff" d="M19.586 3.188a2.84 2.84 0 0 0-.642-1.235 2.44 2.44 0 0 0-1.112-.714C16.284.777 10.078.777 10.078.777s-6.205 0-7.753.46a2.43 2.43 0 0 0-1.112.713A2.84 2.84 0 0 0 .57 3.186C.157 4.906.157 8.494.157 8.494s0 3.588.414 5.306c.228.949.901 1.696 1.754 1.949 1.548.462 7.753.462 7.753.462s6.206 0 7.754-.462c.855-.253 1.526-1 1.754-1.95C20 12.083 20 8.495 20 8.495s0-3.588-.414-5.306m-11.479 8.6V5.2l5.138 3.268z"/></g><defs><clipPath id="a"><path fill="#fff" d="M.157.777H20v15.434H.157z"/></clipPath></defs></svg>
